static/roadshow/linear.svg

<svg width="400" height="400" viewBox="0 0 400 400" fill="none" xmlns="http://www.w3.org/2000/svg">
<path d="M305.8 111.2C303.4 97.9 296.1 85.8 284 75.5L106 253.4C97.6999 262 93.5999 272.9 93.5999 286.2C93.2999 299.5 101.3 312.2 116.9 324.6L294.3 147.2C304.3 136.6 308.1 124.5 305.8 111.2Z" fill="white"/>
<path d="M242.3 47.7C239.9 34.4 232.6 22.3 220.5 12L42.4999 190C34.1999 198.6 30.0999 209.5 30.0999 222.8C29.7999 236.1 37.7999 248.8 53.3999 261.2L230.8 83.7C240.8 73.1 244.7 61 242.3 47.7Z" fill="white"/>
<path d="M369.2 174.6C366.8 161.3 359.5 149.2 347.4 138.9L169.4 316.9C161.1 325.5 157 336.4 157 349.7C156.7 363 164.7 375.7 180.3 388.1L357.7 210.7C367.7 200 371.6 187.9 369.2 174.6Z" fill="white"/>
</svg>

<?xml version="1.0" encoding="utf-8"?>
<!-- Generator: Adobe Illustrator 25.2.1, SVG Export Plug-In . SVG Version: 6.00 Build 0)  -->
<svg version="1.1" id="레이어_1" xmlns="http://www.w3.org/2000/svg" xmlns:xlink="http://www.w3.org/1999/xlink" x="0px"
	 y="0px" viewBox="0 0 400 400" style="enable-background:new 0 0 400 400;" xml:space="preserve">
<g id="레이어_2_1_">
</g>
<g id="레이어_1_1_">
	<g>
		<path d="M305.8,111.2c-2.4-13.3-9.7-25.4-21.8-35.7L106,253.4c-8.3,8.6-12.4,19.5-12.4,32.8c-0.3,13.3,7.7,26,23.3,38.4
			l177.4-177.4C304.3,136.6,308.1,124.5,305.8,111.2z"/>
	</g>
	<g>
		<path d="M242.3,47.7c-2.4-13.3-9.7-25.4-21.8-35.7l-178,178c-8.3,8.6-12.4,19.5-12.4,32.8c-0.3,13.3,7.7,26,23.3,38.4L230.8,83.7
			C240.8,73.1,244.7,61,242.3,47.7z"/>
	</g>
	<g>
		<path d="M369.2,174.6c-2.4-13.3-9.7-25.4-21.8-35.7l-178,178c-8.3,8.6-12.4,19.5-12.4,32.8c-0.3,13.3,7.7,26,23.3,38.4
			l177.4-177.4C367.7,200,371.6,187.9,369.2,174.6z"/>
	</g>
</g>
</svg>
